X:1
T:Eichendorff-Lieder
T:Waldmädchen
T:Eichendorff-Lieder
T:20. Waldmädchen
T:Hugo Wolf
T:Joseph von Eichendorff
T:OpenScore (CC0)
T:OpenScore (CC0)
T:OpenScore (CC0)
T:OpenScore (CC0)
T:OpenScore (CC0)
T:OpenScore (CC0)
T:OpenScore (CC0)
T:OpenScore (CC0)
T:OpenScore (CC0)
T:OpenScore (CC0)
T:OpenScore (CC0)
C:Hugo Wolf
Z:Jospeh von Eichendorff
Z:OpenScore (CC0)
%%score 1 { ( 2 4 ) | ( 3 5 ) }
L:1/8
Q:1/4=70
M:4/16
K:G
V:1 treble nm="Voice"
V:2 treble nm="Piano"
V:4 treble 
V:3 bass 
V:5 bass 
V:1
"^Äusserst rasch und feurig" z | z2 | z2 | z2 | z d/ d/ | g3/4 g/4 ^c/ c/ | d/ d/ G/ A/ | %7
w: ||||Bin ein|Feu- er hell, das|lo- dert von dem|
w: ||||I'm a|flame, none dare pur-|sue me, when from|
 B3/4 B/4 ^c/ c/ | d e/ f/ | d/ d/ g/ g/ | B3/4 ^c/4 d/ e/ | f3/4 g/4 f3/4 g/4 | f2- | f2- | (f2 | %15
w: grü- nen Fel- sen-|kranz, See- wind|ist mein Buhl' und|for- dert  mich zum|lust'- gen Wir- bel-|tanz,|_||
w: rock to rock I|leap; and the|danc- ing breez- es|woo me, fol- low|me from  steep to|steep:|_||
 f2 | f/) z/ z | (3(c/B/) A/ (3(c/B/) A/ | (3(c/e/) d/ (3(c/B/) ^A/ | %19
w: ||kommt * und wech- * selt|un- * be- stän- * dig,|
w: ||False, * in- con- * stant|wind, * I warn * thee;|
!<(! (3(B/c/) ^c/ (3:2:2(dc/) | (3(=c/d/) e/ (3:2:2(fe/)!<)! |!f! (3(d/e/) f/ g/ g/ | %22
w: stei- * gend wild, *|nei- * gend mild, *|mei- * ne schlan- ken|
w: rush- * ing, wild, *|flash- * ing, mild: *|shun * my hiss- ing|
 B/ c/ (3(^c/d/) d/ | (3B/A/ G/ !>!_e/ !>!!fermata!e/ | %24
w: Lo- hen wend' * ich:|komm * nicht nah' mir,|
w: flames that scorn * thee,|come * not near me,|
[Q:1/4=65] z/[Q:1/4=60]"^rit." !>!F[Q:1/4=50] !>!F/ |[Q:1/4=70]"^a tempo" !>!A/ !>!G/ z | z2 | z2 | %28
w: ich ver-|brenn' dich!|||
w: else I'll|burn thee!|||
 z2 | z2 |[K:G] z2 | z2 | z2 | z2 | z2 | z2 | z2 | z2 | z2 | z2 | z2 | z2 |[K:G][K:treble] z2 | %43
w: |||||||||||||||
w: |||||||||||||||
 B3/2 B/ | e e | g3/2 g/ | f e | B3/2 B/ | A G | F E | ^d2 |!pp![Q:1/4=65] B3/2 B/[Q:1/4=63] | %52
w: Wo die|wil- den|Bä- che|rau- schen|und die|ho- hen|Pal- men|stehn,|wenn die|
w: Where you|hear the|wa- ters|roar- ing,|tower- ing|palm- trees|wave in|air;|there the|
[Q:1/4=60] e[Q:1/4=58] e |[Q:1/4=55] g3/2 g/[Q:1/4=53] |[Q:1/4=50] f e |[Q:1/4=48] _e3/2 =f/ | %56
w: Jä- ger|heim- lich|lau- schen,|vie- le|
w: hunt- er|hid- den,|cower- ing,|watch- es|
 _e _d | c _B |[Q:1/4=50]"^beschleunigend" c2-[Q:1/4=52] |[Q:1/4=54] c2-[Q:1/4=56] | %60
w: Re- he|ein- sam|gehn.|_|
w: near the|proud hart's|lair.|_|
[Q:1/4=58] c[Q:1/4=60] z |[Q:1/4=62] z2[Q:1/4=64] |[Q:1/4=65]"^a tempo" z (3c/_B/ A/ | %63
w: ||Bin * ein|
w: ||I'm * a|
 _d/ c/ (3(_B/c/) d/ | _e/ e/ (3e/ _d/ c/ | (3:2:2(=f_e/) (3(_d/e/) e/ | %66
w: Reh, flieg' durch _ die|Trüm- mer, ü- ber die|Höh', _ wo * im|
w: roe, and you _ may|watch me leap to and|fro _ where * the|
[Q:1/4=62]"^ritard." (3:2:2(=f_e/)[Q:1/4=59] (3(=d/e/) f/ |[Q:1/4=56] ^f3/2 f/[Q:1/4=53] | %68
w: Schnee _ still _ die|letz- ten|
w: snow _ decks * the|heights, no|
 (f/^g) f/ | (^e/=e)"^drängend"[Q:1/4=55] ^d/ | z/[Q:1/4=60] ^c[Q:1/4=65] ^g/ | %71
w: Gip- * fel|schim- * mern,|folg' mir|
w: hound * can|match * me,|fol- low|
[Q:1/4=70]"^schnell" f2 |[Q:1/4=50] z/[Q:1/4=45]"^rit." B/[Q:1/4=43] ^d3/4 ^A/4[Q:1/4=40] | %73
w: nicht,|er- jagst mich|
w: not,|you'll ne- ver|
[Q:1/4=60]"^a tempo" ^c/ B/[Q:1/4=65] z | z2 | z2 |[K:G] z2 | z2 | z2 | z2 | z2 | z2 | z2 | z2 | %84
w: nim- mer!|||||||||||
w: catch me.|||||||||||
 z2 | z2 | z2 | z2 |[K:G][K:treble] z2 | z2 | z d/ d/ | g3/4 g/4 ^c/ c/ | d/ d/ G/ A/ | %93
w: ||||||Bin ein|Vög- lein in den|Lüf- ten, schwing' mich|
w: ||||||I'm a|bird in a- zure|wing- ing, sing- ing|
 B/ B/ ^c/ c/ | d e/ f/ | d/ d/ g/ g/ | B/ ^c/ d/ e/ | f3/4 g/4 f3/4 g/4 | f2- | f2- | f2- | f2- | %102
w: ü- bers blau- e|Meer, durch die|Wol- ken von den|Klüf- ten fliegt kein|Pfeil mehr bis hie-|her.|_|||
w: in a world of|light, o'er the|clouds with sun- shine|mingl- ing, safe be-|yond the ar- row's|flight.|_|||
 f/ z/ z |!p![Q:1/4=68] A/"^ein wenig nachlassend" A/ c- |[Q:1/4=67] c/ c/ e- | %105
w: |Und die Au'n,|_ die Fel-|
w: |And the plains,|_ and hills,|
[Q:1/4=66] e/ e/ d- |[Q:1/4=65] d/ c/ f- |[Q:1/4=64] f/ f/ =f- | f3/2 =f/ | %109
w: * sen- bo-|* gen, Wal-|* des- ein-|* sam-|
w: _ the cher-|* ished so-|* li- tude|_ and|
[Q:1/4=63] e"^immer zurückhaltend" g- | g3/2 =f/[Q:1/4=62] | (e2- | e/d/) c/ _A/ | G3/2 (e/- | %114
w: keit weit,|_ wie|weit,|_ _ sind ver-|sun- ken|
w: star, far,|_ how|far,|_ _ neath the|bil- lows|
 e/d/) c/ ^G/ | A2- | A2- |!>(! (Ae-) | e!>)! _e |[Q:1/4=62] z2 |[Q:1/4=60] z/!p! d z/ | %121
w: _ _ in die|Wo-|||* gen||ach,|
w: _ _ all has|van-|||* ished||lo!|
[Q:1/4=58] z z3/4 ^c/4 | =c/B/ (3(A/c/) B/ | A/G/[Q:1/4=62] z |[Q:1/4=66] z2[Q:1/4=70] | %125
w: ich|ha- be mich * ver-|flo- gen!||
w: I've|flown where I * must|per- ish!||
[Q:1/4=74] z2[Q:1/4=78] | z2 |[K:G] z2 | z2 | z2 | z2 | z2 | z2 | z2 | z2 | z2 | z2 | z2 | z2 | %139
w: ||||||||||||||
w: ||||||||||||||
 z2 | z2 | z2 |] %142
w: |||
w: |||
V:2
!mf! (d/4e/4f/4g/4 | a/4b/4a/4f/4) (d/4e/4f/4g/4 | a/4b/4a/4f/4) (d/4e/4f/4g/4 | %3
!<(! a/4b/4a/4f/4) (^a/4b/4a/4f/4) | (^a/4b/4a/4!<)!!f!f/4)!pp! (g/4=a/4b/4c'/4 | %5
 !>!d'/4e'/4d'/4g/4) (!>!e'/4f'/4e'/4g/4) | (!>!d'/4e'/4d'/4g/4) (!>!c'/4d'/4c'/4e/4) | %7
 (!>!b/4c'/4b/4d/4) (!>!_b/4c'/4b/4^c/4) | (!>!a/4=b/4a/4d/4) (g/4a/4b/4c'/4 | %9
 !>!d'/4e'/4d'/4g/4) (!>!e'/4f'/4e'/4g/4) | (!>!d'/4e'/4d'/4g/4) (!>!g'/4a'/4g'/4g/4) | %11
!<(! (!>!f'/4g'/4f'/4f/4) (!>!f'/4g'/4f'/4f/4) | (!>!f'/4g'/4f'/4!<)!f/4)!f! (b/4^c'/4^d'/4e'/4 | %13
 !>!f'/4^g'/4f'/4f/4) (!>!=g'/4a'/4g'/4g/4) | (!>!f'/4^g'/4f'/4f/4) (b/4^c'/4^d'/4e'/4 | %15
 !>!f'/4^g'/4f'/4f/4) (!>!=g'/4a'/4g'/4g/4) |!>(! (!>!f'/4^g'/4f'/4f/4) (!>!f/4^g/4f/4!>)!!p!F/4) | %17
!pp! (d/4e/4d/4D/4) (E/4F/4E/4D/4) | (d/4e/4d/4D/4) (E/4F/4E/4D/4) | %19
!p!"_cresc." (d/4e/4d/4D/4) (E/4F/4E/4D/4) | (d/4e/4d/4D/4) (E/4F/4E/4D/4) | %21
 (d/4e/4d/4G/4) (g/4a/4g/4B/4) | (b/4c'/4b/4d/4) (d'/4e'/4d'/4g/4) | %23
 (g'/4a'/4g'/4g/4)!ff![_a_e'_a']/ !fermata!z/ |!f! [CDF]/ z/ z | z!ff! (a/4b/4c'/4d'/4) | %26
 (!>!_e'/4=f'/4e'/4^f/4 e'/4f'/4e'/4f/4) | (!>!_e'/4=f'/4e'/4^f/4 e'/4f'/4e'/4f/4) | %28
 (!>!_e'/4=f'/4e'/4^f/4 e'/4f'/4e'/4f/4) | (!>!d'/g'/4) z/4 (a/4b/4c'/4d'/4) | %30
[K:G] (!>!_e'/4=f'/4e'/4^f/4 e'/4f'/4e'/4f/4) | (!>!_e'/4=f'/4e'/4^f/4 e'/4f'/4e'/4f/4) | %32
 (!>!_e'/4=f'/4e'/4g/4) (!>!g'/4a'/4g'/4g/4) | (!>!f'/4a'/4f'/4a/4) (g/4b/4c'/4d'/4) | %34
 (!>!_e'/4=f'/4e'/4^f/4 e'/4f'/4e'/4f/4) | (!>!_e'/4=f'/4e'/4^f/4 e'/4f'/4e'/4f/4) | %36
 (!>!_e'/4=f'/4e'/4^f/4 e'/4f'/4e'/4f/4) | (!>!d'/g'/4) z/4 (g/4b/4c'/4d'/4) | %38
 (!>!_e'/4=f'/4e'/4^f/4 e'/4f'/4e'/4f/4) | (!>!_e'/4=f'/4e'/4^f/4 e'/4f'/4e'/4f/4) | %40
 (!>!_e'/4=f'/4e'/4^f/4 e'/4f'/4e'/4f/4) | (^d'/4=e'/4d'/4f/4 d'/4e'/4d'/4f/4 | %42
 e'/) z/!pp! (e/4f/4=g/4a/4) | (b/4c'/4b/4e/4 b/4c'/4b/4e/4) | (c'/4d'/4c'/4e/4 c'/4d'/4c'/4e/4) | %45
 (e'/4f'/4e'/4g/4 e'/4f'/4e'/4g/4) | (g'/4a'/4g'/4g/4 g'/4a'/4g'/4g/4) | %47
 (g'/4a'/4g'/4g/4 g'/4a'/4g'/4g/4) | (g'/4a'/4g'/4g/4 g'/4a'/4g'/4g/4) | %49
 (f'/4g'/4f'/4f/4 f'/4g'/4f'/4f/4) | (f'/4^g'/4f'/4f/4 f'/4g'/4f'/4f/4) | %51
!ppp! (b/4^c'/4b/4e/4 b/4c'/4b/4e/4) | (=c'/4d'/4c'/4e/4 c'/4d'/4c'/4e/4) | %53
 (d'/4e'/4d'/4=f/4 d'/4e'/4d'/4f/4) | (^d'/4=e'/4d'/4=e/4 ^c'/4d'/4c'/4e/4) | %55
 (=c'/4_d'/4c'/4_e/4 c'/4e/4c'/4d'/4 | _e'/4_a/4_a'/4g'/4 =f'/4a/4g'/4f'/4 | %57
 _e'/4_a/4=f'/4e'/4 _d'/4g/4e'/4d'/4) | (c'/4g/4c'/4_d'/4 c'/4g/4c'/4d'/4 | %59
 c'/4g/4c'/4_d'/4!<(! c'/4g/4c'/4d'/4 | c'/4g/4c'/4_d'/4 c'/4g/4c'/4d'/4 | %61
 c'/4g/4c'/4_d'/4 c'/4!mp!g/4c'/4!<)!d'/4) | %62
!f!"^a tempo" (c/4!>(!B/4_B/4A/4)!>)!!p! (A/4B/4=B/4c/4) | %63
!<(! (_B/4_c/4=c/4!<)!_d/4)!>(! (d/4c/4_c/4!>)!B/4) |!<(! (_e/4=d/4_d/4=c/4) (c/4d/4=d/4e/4) | %65
 (_d/4_e/4=e/4=f/4) (f/4_e/4=d/4!<)!!mf!_d/4) |!pp! (=d/4_e/4=e/4=f/4) (f/4e/4_e/4d/4) | %67
 (^d/4=e/4^e/4f/4) (f/4e/4=e/4d/4) | (f/4^e/4=e/4^d/4) (f/4^e/4=e/4d/4) | %69
"_cresc." (^e/4f/4^^f/4^g/4) (^f/4^^f/4g/4a/4) | (^^f/4^g/4a/4^a/4) x | %71
!f! b/4!<(!(f/4^g/4^a/4 b/4^c'/4^d'/4e'/4!<)! |!ff! [ff']/) z/ z/!f! [E^A]/4 z/4 | %73
!ff! z!8va(! (^c'/4^d'/4e'/4f'/4) | (g'/4a'/4g'/4^a/4 g'/4a'/4g'/4a/4) | %75
 (g'/4a'/4g'/4^a/4 g'/4a'/4g'/4a/4) |[K:G] (g'/4a'/4g'/4^a/4 g'/4a'/4g'/4a/4) | %77
 (f'/b'/4) z/4 (^c'/4^d'/4e'/4f'/4) | (g'/4a'/4g'/4^a/4 g'/4a'/4g'/4a/4) | %79
 (g'/4a'/4g'/4^a/4 g'/4a'/4g'/4a/4) | (g'/4a'/4g'/4b/4) (b'/4^c''/4b'/4d'/4) | %81
 (^a'/4^c''/4a'/4^c'/4) (b/4^d'/4e'/4f'/4) | (g'/4a'/4g'/4^a/4 g'/4a'/4g'/4a/4) | %83
 (g'/4a'/4g'/4^a/4 g'/4a'/4g'/4a/4) | (g'/4a'/4g'/4^a/4 g'/4a'/4g'/4a/4) | %85
 (f'/b'/)!ff! (^c'/4^d'/4e'/4f'/4) | (g'/4a'/4g'/4^a/4 g'/4a'/4g'/4a/4) | %87
 (g'/4a'/4g'/4^a/4 g'/4a'/4g'/4a/4) |!>(! (g'/4a'/4g'/4g/4 g'/4a'/4g'/4g/4) | %89
 (g'/4a'/4g'/4g/4 f'/4g'/4f'/4f/4!>)! |!pp! g'/)!8va)! z/!pp! (g/4a/4b/4c'/4 | %91
 !>!d'/4e'/4d'/4g/4) (!>!e'/4f'/4e'/4g/4) | (!>!d'/4e'/4d'/4g/4) (!>!c'/4d'/4c'/4e/4) | %93
 (!>!b/4c'/4b/4d/4) (!>!_b/4c'/4b/4^c/4) | (!>!a/4=b/4a/4d/4) (g/4a/4b/4c'/4 | %95
 !>!d'/4e'/4d'/4g/4) (!>!e'/4f'/4e'/4g/4) | (!>!d'/4e'/4d'/4g/4) (!>!g'/4a'/4g'/4g/4) | %97
!<(! (!>!f'/4g'/4f'/4f/4) (!>!f'/4g'/4f'/4f/4) | (!>!f'/4g'/4f'/4!<)!f/4)!f! (b/4^c'/4^d'/4e'/4 | %99
 !>!f'/4^g'/4f'/4f/4) (!>!=g'/4a'/4g'/4g/4) | (!>!f'/4^g'/4f'/4f/4) (b/4^c'/4^d'/4e'/4 | %101
 !>!f'/4^g'/4f'/4f/4) (!>!=g'/4a'/4g'/4g/4) | (f'/4^g'/4f'/4f/4) (f/4^g/4f/4F/4) | %103
!p! (3(c/B/A/) (3(c/B/A/) | (3(c/e/d/ (3c/B/^A/) |!<(! (3(B/c/^c/ (3:2:2!>!dc/) | %106
 (3(=c/d/e/ (3:2:2!>!f!<)!e/) | x!p! g | (3(=f/a/g/ (3f/e/^d/) | (3(e/=f/^f/!<(! (3:2:2!>!gf/) | %110
 (3(=f/g/=a/ (3:2:2!>!b!<)!a/) |!<(! (3(^g/a/b/ (3:2:2c'!<)!c'/) | %112
 (3:2:2(^c!>(!d/- (3d/e/=f/)!>)! |!<(! (3(^f/a/g/ (3:2:2c'!<)!c'/) | %114
 (3:2:2(^cd/-!>(! (3d/e/=f/)!>)! |!pp! (3(e/b/a/ (3:2:2e')e'/ | (3(e/b/a/ (3:2:2e')e'/ | %117
 (3(e/b/a/ (3:2:2e')e'/ | (3(^c/b/a/ (3:2:2_e')e'/ | %119
"^noch mehr zurückhaltend" (3(=c/_b/a/ (3:2:2d')d'/ | (3(_B/a/g/ (3:2:2^c')c'/ | %121
 (3(A/g/f/ =c'/) z/ | z!pp! [CF] |!pp! z"^sehr schnell" (d'/4e'/4d'/4g/4 | %124
 d'/4e'/4d'/4g/4 d'/4e'/4d'/4g/4 | d'/4e'/4d'/4g/4)!8va(! (g'/4a'/4g'/4_b/4 | %126
 g'/4a'/4g'/4_b/4 g'/4a'/4g'/4b/4 |[K:G] g'/4a'/4g'/4_b/4) ([a'c'']/4d''/4[a'c'']/4_e'/4 | %128
 [a'c'']/4d''/4[a'c'']/4_e'/4 [a'c'']/4d''/4[a'c'']/4e'/4) | %129
 (b'/4d''/4b'/4g'/4 e'/4g'/4e'/4c'/4)!8va)! | (b/4d'/4b/4g/4 e/4g/4e/4c/4) | %131
 (B/4d/4B/4G/4 E/4G/4E/4C/4) | z2 | z2 | D/4B,/4D/4F/4 G/4D/4G/4A/4 | %135
"_dim." B/4G/4B/4^c/4 d/4B/4d/4f/4 | g/4d/4g/4a/4 b/4g/4b/4^c'/4 | %137
!ppp!!8va(! d'/4b/4d'/4f'/4 g'/4d'/4g'/4a'/4 | b'/4g'/4b'/4^c''/4 d''/4!pppp!b'/4d''/4f''/4 | %139
 g''/!8va)! z/ z | [Fcg]/ z/ z | [B,G]/ z/ z |] %142
V:3
 z | .G,,/.[D,A,]/ z | .G,,/.[D,A,]/ z | .G,,/.D,/ .G,,/.D,/ | .G,,/.D,/ .G,,/.D,/ | %5
[K:treble]"_durchweg staccato" .G,/.[B,G]/ .G,/.[^A,G]/ | .G,/.[B,G]/ .G,/.[CG]/ | %7
 .G,/.[DG]/ .G,/.[_EG]/ | .G,/.[CF]/[K:bass] .G,,/.D,/ |[K:treble] .G,/.[B,G]/ .G,/.[CG]/ | %10
 .G,/.[B,G]/ .G,/.[B,G]/ | .F,/.[B,F]/ .F,/.[^A,F]/ | .F,/.[B,F]/ z | .B,/.[^DB]/ .E,/.[CG]/ | %14
 .B,/.[^DB]/ z | .B,/.[^DB]/ .E,/.[CG]/ | .F,/.F/ .F,/ z/ |[K:bass] .D,,/.D,/ .E,,/.E,/ | %18
 .^E,,/.^E,/ .F,,/.F,/ | .G,,/.G,/ .^G,,/.^G,/ | .A,,/.A,/ .^A,,/.^A,/ | %21
 .B,,/.[D,B,]/ .D,/.[G,B,]/ | .G,/.[B,D]/[K:treble] .B,/.[DG]/ | .D/.[GB]/ [C_E_Ac]/ !fermata!z/ | %24
[K:bass] [D,,A,,D,]/"^rit." z/ z |"^a tempo" z !>!G,,/!>!D,/ | %26
[K:treble] [G,C_EA]/[G,CEA]/[G,CEA]/[G,CEA]/ |!>(! [_A,C_E_A]/[A,CEA]/[A,CEA]/[A,CEA]/ | %28
 [=A,CG]/[A,CG]/[A,C^F]/[A,CF]/ | ([B,DG]/!>)!G,/4) z/4[K:bass]!ff! !>!G,,/!>!D,/ | %30
[K:G][K:treble] [G,C_EA]/[G,CEA]/[G,CEA]/[G,CEA]/ |!>(! [_A,C_E_A]/[A,CEA]/[A,CEA]/[A,CEA]/ | %32
 [=A,CG]/[A,CG]/[K:bass] [^C,_E,B,]/[C,E,B,]/!>)! |!p! [D,F,A,]/ z/!ff! !>!G,,/!>!D,/ | %34
[K:treble] [G,C_EA]/[G,CEA]/[G,CEA]/[G,CEA]/ |!>(! [_A,C_E_A]/[A,CEA]/[A,CEA]/[A,CEA]/ | %36
 [=A,CG]/[A,CG]/[A,C^F]/[A,CF]/ | ([B,DG]/!>)!!p!G,/4) z/4[K:bass]!ff! !>!G,,/!>!D,/ | %38
[K:treble] [G,CEA]/[G,CEA]/[G,CEA]/[G,CEA]/ |!>(! [_A,C_E_A]/[A,CEA]/[A,CEA]/[A,CEA]/ | %40
 [=A,C_E_A]/[A,CEA]/[A,CEA]/[A,CEA]/ | [A,B,^D^G]/[A,B,DG]/[A,B,D^F]/[A,B,DF]/ | %42
 ([^G,B,E]/!>)!E,/) z | [EGB]/[EGB]/[EGB]/[EGB]/ | [EG^A]/[EGA]/[EGA]/[EGA]/ | %45
 [CE^A]/[CEA]/[CEA]/[CEA]/ | [^CE^A]/[CEA]/[CEA]/[CEA]/ | [DGB]/[DGB]/[DGB]/[DGB]/ | %48
 [^DGB]/[DGB]/[EGc]/[EGc]/ | [F^A^c]/[FAc]/[FAc]/[FAc]/ | [FB^d]/[FBd]/[ABd]/[ABd]/ | %51
 [E^GB]/[EGB]/[EGB]/[EGB]/ | [E=G^A]/[EGA]/[EGA]/[EGA]/ | [D=FB]/[DFB]/[DFB]/[DFB]/ | %54
 [_D_F_B]/[DFB]/[DFB]/[DFB]/ | [_E_A]/[EA]/[=FA]/[FA]/ | [C_A]/[CA]/[_DA]/[DA]/ | %57
 [_Ec]/[Ec]/[E_B]/[EB]/ |"^beschleunigend" [=EG]/[EG]/[EG]/[EG]/ | [EG]/[EG]/[CEG]/[CEG]/ | %60
 .[CEG]/.[CEG]/[G,CE]/[G,CE]/ |[K:bass] .[G,CE]/.[G,CE]/.[E,G,C]/.[E,G,C]/ | %62
"_stacc." .[=F,,C,]/.=F,/ .C,/.F,/ | .=F,,/.=F,/ ._B,,/.F,/ | .=F,,/.=F,/ .A,,/.F,/ | %65
 .=F,,/._A,/ ._C,/.A,/ | ._B,,/._B,/ .=F,/.B,/ | .=B,,/.=B,/ .^D,/.B,/ | .^B,,/.^B,/ .^G,/.B,/ | %69
 .^C,/.^C/ .^D,/"^drängend".^D/ | .E,/.E/ .^E,/.[^G,D^E]/ | [F,B,^DF]2 | %72
[K:treble] [FB^d]/"^rit." z/ z/[K:bass] [F,,^C,F,]/4 z/4 |"^a tempo" z !>!B,,/!>!F,/ | %74
[K:treble] [EG^c]/!ff![EGc]/!f![EGc]/[EGc]/ |!ff!!>(! [=CEG=c]/!f![CEGc]/[CEGc]/[CEGc]/ | %76
[K:G] [^CEGB]/[CEGB]/[CEG^A]/[CEGA]/ | ([^DFB]/!>)!B,/4) z/4[K:bass]!ff! !>!B,,/!>!F,/ | %78
[K:treble] [EG^c]/!ff![EGc]/!f![EGc]/[EGc]/ |!ff! [=CEG=c]/!ff![CEGc]/!f![CEGc]/[CEGc]/ | %80
!ff!!>(! [^CEB]/[CEB]/[K:bass] [^E,=G,D]/[E,G,D]/ | [F,^A,^C]/!>)! z/!ff! !>!B,,/!>!F,/ | %82
[K:treble] [EG^c]/[EGc]/[EGc]/[EGc]/ |!>(! [=CEG=c]/[CEGc]/[CEGc]/[CEGc]/ | %84
 [^CEGB]/[CEGB]/[CEG^A]/[CEGA]/ | ([^DFB]/B,/4)!>)! z/4[K:bass]!ff! !>!B,,/!>!F,/ | %86
[K:treble] [EG^c]/!ff![EGc]/!f![EGc]/[EGc]/ |!ff!!>(! [=CEG=c]/!f![CEGc]/[CEGc]/[CEGc]/ | %88
 [^CEGB]/[CEGB]/[CEGB]/[CEGB]/ |!p! [DGB]/[DGB]/[DA=c]/[DAc]/ | %90
 [GB]/!>)!!pp![GB]/[K:bass] G,,/D,/ |[K:treble] G,/[B,G]/ G,/[^A,G]/ | G,/[B,G]/ G,/[CG]/ | %93
 G,/[DG]/ G,/[_EG]/ | G,/[CF]/[K:bass] G,,/D,/ |[K:treble] G,/[B,G]/ G,/[CG]/ | %96
 G,/[B,G]/ G,/[B,G]/ | F,/[B,F]/ F,/[^A,F]/ | F,/[B,F]/ z | B,/[^DB]/ E,/[CG]/ | B,/[^DB]/ z | %101
 B,/[^DB]/ E,/[CG]/ | F,/F/ F,/ z/ |[K:bass]!pp! (D,,/"^ein wenig nachlassend"D,/) (^D,,/^D,/) | %104
 (E,,/E,/) (^E,,/F,,/) | (G,,/D,/) (^G,,/D,/) | (A,,/D,/) (^A,,/D,/) | (B,,/D,/) (G,,/D,/) | %108
 A,,/^A,,/ (B,,/G,/) | (C,/G,/)"^immer zurückhaltend" (^C,/G,/) | (D,/G,/) (^D,/G,/) | %111
 (E,/^G,/-[E,G,E-]) | E/D/C/B,/ | (E,/_B,/-[E,B,E-]) | E/D/=C/=B,/ | [^F,=C^F]2- | [F,CF]2- | %117
 [F,CF]2 | [G,^CA]2 | D,/ G,3/2 | D,/ B,3/2 | D,/ A,3/2 | z [G,,_E,] | z[K:treble] [=FGd]/[FGd]/ | %124
 [=FGd]/!pp![FGd]/[FGd]/[FGd]/ | [=FGd]/ z/!pp! [EG^c]/!pp![EGc]/ | [EG^c]/[EGc]/[EGc]/[EGc]/ | %127
[K:G] [EG^c]/ z/!pp! [G=cf]/!pp![Gcf]/ | [Gcf]/[Gcf]/[Gcf]/[Gcf]/ | [gbd']/ z/ [ce^a]/ z/ | %130
 [GBd]/ z/ [CE^A]/ z/ |[K:bass] [G,B,D]/ z/ [C,E,^A,]/ z/ | (B,/4D/4B,/4G,/4 E,/4G,/4E,/4C,/4) | %133
 z/4 D,/4G,/4A,/4 B,/4G,/4B,/4^C/4 |!ped! z2 | z2 | z2 | z2 | z2 | z2!ped-up! | %140
 !arpeggio![G,_E]/ z/ z | [G,,D,]/ z/ z |] %142
V:4
 x | x2 | x2 | x2 | x2 | x2 | x2 | x2 | x2 | x2 | x2 | x2 | x2 | x2 | x2 | x2 | x2 | x2 | x2 | x2 | %20
 x2 | x2 | x2 | x2 | x2 | x2 | x2 | x2 | x2 | x2 |[K:G] x2 | x2 | x2 | x2 | x2 | x2 | x2 | x2 | %38
 x2 | x2 | x2 | x2 | x2 | x2 | x2 | x2 | x2 | x2 | x2 | x2 | x2 | x2 | x2 | x2 | x2 | x2 | x2 | %57
 x2 | x2 | x2 | x2 | x2 | _EE | _GG | AA | _AA | _AA | =AA | ^GG | ^G^B | ^c (^g/4=a/4^a/4b/4-) | %71
 x2 | x2 | x!8va(! x | x2 | x2 |[K:G] x2 | x2 | x2 | x2 | x2 | x2 | x2 | x2 | x2 | x2 | x2 | x2 | %88
 x2 | x2 | x/!8va)! x3/2 | x2 | x2 | x2 | x2 | x2 | x2 | x2 | x2 | x2 | x2 | x2 | x2 | x2 | x2 | %105
 x2 | x2 | (3(d/e/f/) (3(=f/e/d/) | x2 | x ^A | B2 | c2 | A_A | c2 | A^G | A2- | A2- | A2 | x2 | %119
 x2 | x2 | x2 | x2 | x2 | x2 | x!8va(! x | x2 |[K:G] x2 | x2 | x2!8va)! | x2 | x2 | x2 | x2 | x2 | %135
 x2 | x2 |!8va(! x2 | x2 | x/!8va)! x3/2 | x2 | x2 |] %142
V:5
 x | x2 | x2 | x2 | x2 |[K:treble] x2 | x2 | x2 | x[K:bass] x |[K:treble] x2 | x2 | x2 | x2 | x2 | %14
 x2 | x2 | x2 |[K:bass] x2 | x2 | x2 | x2 | x2 | x[K:treble] x | x2 |[K:bass] x2 | x2 | %26
[K:treble] x2 | x2 | x2 | x[K:bass] x |[K:G][K:treble] x2 | x2 | x[K:bass] x | x2 |[K:treble] x2 | %35
 x2 | x2 | x[K:bass] x |[K:treble] x2 | x2 | x2 | x2 | x2 | x2 | x2 | x2 | x2 | x2 | x2 | x2 | x2 | %51
 x2 | x2 | x2 | x2 | x2 | x2 | x2 | x2 | x2 | x2 |[K:bass] x2 | x2 | x2 | x2 | x2 | x2 | x2 | x2 | %69
 x2 | x2 | x2 |[K:treble] x3/2[K:bass] x/ | x2 |[K:treble] B,2 | x2 |[K:G] x2 | x[K:bass] x | %78
[K:treble] B,2 | x2 | x[K:bass] x | x2 |[K:treble] B,2 | x2 | x2 | x[K:bass] x |[K:treble] B,2 | %87
 x2 | x2 | x2 | x[K:bass] x |[K:treble] x2 | x2 | x2 | x[K:bass] x |[K:treble] x2 | x2 | x2 | x2 | %99
 x2 | x2 | x2 | x2 |[K:bass] x2 | x2 | x2 | x2 | x2 | x2 | x2 | x2 | x2 | =F,2 | x2 | =F,2 | x2 | %116
 x2 | x2 | x2 | (D,/G,/D) | (D,/_B,/E) | (D,/A,/F) | x2 | x[K:treble] x | x2 | x2 | x2 |[K:G] x2 | %128
 x2 | x2 | x2 |[K:bass] x2 | [G,,B,,D,]/ z/ [C,,E,,^A,,]/ z/ | !arpeggio![G,,,D,,B,,]/4 z/4 z/ z | %134
 x2 | x2 | x2 | x2 | x2 | x2 | x2 | x2 |] %142

